X: 1
T: la Mariane
C: trad France
O: Auvergne
R: waltz
Z: 2009 John Chambers <jc:trillian.mit.edu>
F: http://www.dulcimersessions.com/apr05/french.html 2009-6-10
M: 3/4
L: 1/8
K: D
|: "D"D2 F2 D2 | "F#m"A2 AA A2 | "G"G2 B2 G2 | "A"F3 E E2 \
|  "D"D2 F2 D2 | "F#m"A2 AA A2 |1 "G"G2 "A"F2 E2 | "D"D3 D D2 :|2 "G"G2 FG FG | "A"A3 A A2 ||
|: "G"G2 BG EG | "D"F2 AF DF | "A"E2 GE CE | "D"D2 FD AF \
|  "G"G2 BG EG | "D"F2 AF DF | "A"E2 GE CE | "D"D3 D D2 :|
%
P: Alternate "A part"
|: "D"D2 F2 D2 | "F#m"AC F,C A2 | "G"G2 B2 G2 | "A"FA, E,2 E2 \
|  "D"D2 F2 D2 | "F#m"AC F,C A2 |1 "G"G2 "A"FA, E2 | "D"D3 D D2 :|2 "G"G2 FG FG | "A"AE A,E A2 ||
